X: 27788
T: Morpeth Rant, The
R: reel
M: 4/4
K: Dmajor
|:A2|d2 AG FDFA|BGBd cAce|f2 f2 gfed|c2 e2 e2 A2|
d2 AG FDFA|BGBd cAce|f2 f2 gfed|A2 d2 d2:|
|:e2|dfaf dfaf|gfef g2 ef|gfed ceag|fefg f2 e2|
dfaf dfaf|gfef g2 ef|gfed ceag|f2 d2 d2:|

